flaticon/science/monitor.svg

<svg xmlns="http://www.w3.org/2000/svg" width="32" height="32" viewBox="0 0 24 24">
    <path d="M2 2.398438L6.398438 2.398438C6.640625 2.398438 6.800781 2.238281 6.800781 2 6.800781 1.761719 6.640625 1.601562 6.398438 1.601562L2 1.601562C1.761719 1.601562 1.601562 1.761719 1.601562 2 1.601562 2.238281 1.761719 2.398438 2 2.398438zM5.199219 3.199219L2 3.199219C1.761719 3.199219 1.601562 3.359375 1.601562 3.601562 1.601562 3.839844 1.761719 4 2 4L5.199219 4C5.441406 4 5.601562 3.839844 5.601562 3.601562 5.601562 3.359375 5.441406 3.199219 5.199219 3.199219zM5.199219 3.199219"/>
    <path d="M 22 0 L 2 0 C 0.878906 0 0 0.878906 0 2 L 0 17.601562 C 0 18.71875 0.878906 19.601562 2 19.601562 L 9.601562 19.601562 L 9.601562 22 C 9.601562 22.398438 7.878906 23.199219 6.800781 23.199219 C 6.558594 23.199219 6.398438 23.359375 6.398438 23.601562 C 6.398438 23.839844 6.558594 24 6.800781 24 L 17.199219 24 C 17.441406 24 17.601562 23.839844 17.601562 23.601562 C 17.601562 23.359375 17.441406 23.199219 17.199219 23.199219 C 16.121094 23.199219 14.398438 22.398438 14.398438 22 L 14.398438 19.601562 L 22 19.601562 C 23.121094 19.601562 24 18.71875 24 17.601562 L 24 2 C 24 0.878906 23.121094 0 22 0 Z M 0.800781 2 C 0.800781 1.320312 1.320312 0.800781 2 0.800781 L 22 0.800781 C 22.679688 0.800781 23.199219 1.320312 23.199219 2 L 23.199219 14.398438 L 0.800781 14.398438 Z M 14.480469 23.199219 L 9.480469 23.199219 C 10 22.878906 10.398438 22.480469 10.398438 22 L 10.398438 19.601562 L 13.601562 19.601562 L 13.601562 22 C 13.601562 22.480469 14 22.878906 14.480469 23.199219 Z M 23.199219 17.601562 C 23.199219 18.28125 22.679688 18.800781 22 18.800781 L 2 18.800781 C 1.320312 18.800781 0.800781 18.28125 0.800781 17.601562 L 0.800781 15.199219 L 23.199219 15.199219 Z M 23.199219 17.601562"/>
    <path d="M10.800781 6.398438C11.039062 6.398438 11.199219 6.238281 11.199219 6L11.199219 4.800781 12.160156 4.359375C12.359375 4.28125 12.441406 4.039062 12.359375 3.839844 12.28125 3.640625 12.039062 3.558594 11.839844 3.640625L10.640625 4.160156C10.480469 4.199219 10.398438 4.359375 10.398438 4.519531L10.398438 6C10.398438 6.238281 10.558594 6.398438 10.800781 6.398438zM9.039062 8.441406L7.839844 8.960938C7.679688 9 7.601562 9.160156 7.601562 9.320312L7.601562 10.800781C7.601562 11.039062 7.761719 11.199219 8 11.199219 8.238281 11.199219 8.398438 11.039062 8.398438 10.800781L8.398438 9.601562 9.359375 9.160156C9.558594 9.078125 9.640625 8.839844 9.558594 8.640625 9.480469 8.441406 9.238281 8.359375 9.039062 8.441406zM9.039062 8.441406"/>
    <path d="M 17.800781 8.039062 L 15.199219 6.554688 L 15.199219 3.601562 C 15.199219 3.441406 15.121094 3.320312 15 3.238281 L 12.199219 1.640625 C 12.078125 1.558594 11.921875 1.558594 11.800781 1.640625 L 9 3.238281 C 8.878906 3.320312 8.800781 3.441406 8.800781 3.601562 L 8.800781 6.554688 L 6.199219 8.039062 C 6.078125 8.121094 6 8.238281 6 8.398438 L 6 11.601562 C 6 11.761719 6.078125 11.878906 6.199219 11.960938 L 9 13.558594 C 9.078125 13.601562 9.121094 13.601562 9.199219 13.601562 C 9.28125 13.601562 9.320312 13.601562 9.398438 13.558594 L 12 12.074219 L 14.601562 13.558594 C 14.679688 13.601562 14.71875 13.601562 14.800781 13.601562 C 14.878906 13.601562 14.921875 13.601562 15 13.558594 L 17.800781 11.960938 C 17.921875 11.878906 18 11.761719 18 11.601562 L 18 8.398438 C 18 8.238281 17.921875 8.121094 17.800781 8.039062 Z M 12 2.480469 L 14.398438 3.839844 L 14.398438 6.554688 L 12 7.921875 L 9.601562 6.554688 L 9.601562 3.839844 Z M 9.199219 12.71875 L 6.800781 11.359375 L 6.800781 8.640625 L 9.199219 7.28125 L 10.398438 7.960938 L 11.601562 8.644531 L 11.601562 11.359375 Z M 17.199219 11.359375 L 14.800781 12.71875 L 12.398438 11.359375 L 12.398438 8.644531 L 13.601562 7.960938 L 14.800781 7.28125 L 17.199219 8.640625 Z M 17.199219 11.359375"/>
    <path d="M14.640625 8.441406L13.441406 8.960938C13.28125 9 13.199219 9.160156 13.199219 9.320312L13.199219 10.800781C13.199219 11.039062 13.359375 11.199219 13.601562 11.199219 13.839844 11.199219 14 11.039062 14 10.800781L14 9.601562 14.960938 9.160156C15.160156 9.078125 15.238281 8.839844 15.160156 8.640625 15.078125 8.441406 14.839844 8.359375 14.640625 8.441406zM12 18.398438C12.761719 18.398438 13.398438 17.761719 13.398438 17 13.398438 16.238281 12.761719 15.601562 12 15.601562 11.238281 15.601562 10.601562 16.238281 10.601562 17 10.601562 17.761719 11.238281 18.398438 12 18.398438zM12 16.398438C12.320312 16.398438 12.601562 16.679688 12.601562 17 12.601562 17.320312 12.320312 17.601562 12 17.601562 11.679688 17.601562 11.398438 17.320312 11.398438 17 11.398438 16.679688 11.679688 16.398438 12 16.398438zM12 16.398438"/>
</svg>

<svg xmlns="http://www.w3.org/2000/svg" width="32" height="32" viewBox="0 0 24 24">
    <path d="M2 2.398h4.398c.243 0 .403-.16.403-.398 0-.238-.16-.398-.403-.398H2c-.238 0-.398.16-.398.398 0 .238.16.398.398.398zm0 0M5.2 3.2H2c-.238 0-.398.16-.398.402 0 .238.16.398.398.398h3.2c.241 0 .402-.16.402-.398 0-.243-.16-.403-.403-.403zm0 0"/>
    <path d="M22 0H2C.879 0 0 .879 0 2v15.602c0 1.117.879 2 2 2h7.602V22c0 .398-1.723 1.2-2.801 1.2-.242 0-.403.16-.403.402 0 .238.16.398.403.398h10.398c.242 0 .403-.16.403-.398 0-.243-.16-.403-.403-.403-1.078 0-2.8-.8-2.8-1.199v-2.398H22c1.121 0 2-.883 2-2V2c0-1.121-.879-2-2-2zM.8 2C.8 1.32 1.32.8 2 .8h20c.68 0 1.2.52 1.2 1.2v12.398H.8zm13.68 21.2h-5c.52-.321.918-.72.918-1.2v-2.398h3.204V22c0 .48.398.879.878 1.2zm8.72-5.598c0 .68-.52 1.199-1.2 1.199H2c-.68 0-1.2-.52-1.2-1.2V15.2h22.4zm0 0"/>
    <path d="M10.8 6.398c.24 0 .4-.16.4-.398V4.8l.96-.44c.2-.079.281-.32.2-.52-.079-.2-.32-.281-.52-.2l-1.2.52c-.16.04-.242.2-.242.36V6c0 .238.16.398.403.398zm0 0M9.04 8.441l-1.2.52c-.16.039-.238.2-.238.36v1.48c0 .238.16.398.398.398.238 0 .398-.16.398-.398V9.6l.961-.44c.2-.083.282-.321.2-.52-.079-.2-.32-.282-.52-.2zm0 0"/>
    <path d="M17.8 8.04l-2.6-1.485V3.602a.425.425 0 0 0-.2-.364l-2.8-1.597a.353.353 0 0 0-.4 0L9 3.238a.425.425 0 0 0-.2.364v2.953L6.2 8.039c-.122.082-.2.2-.2.36v3.203c0 .16.078.277.2.359L9 13.559c.078.043.121.043.2.043.081 0 .12 0 .198-.043L12 12.074l2.602 1.485c.078.043.117.043.199.043.078 0 .12 0 .199-.043l2.8-1.598c.122-.082.2-.2.2-.36V8.399a.418.418 0 0 0-.2-.359zM12 2.48l2.398 1.36v2.715L12 7.922 9.602 6.555V3.84zM9.2 12.72l-2.4-1.36V8.641l2.4-1.36 1.198.68 1.204.684v2.714zm8-1.36l-2.4 1.36-2.402-1.36V8.645l1.204-.684 1.199-.68 2.398 1.36zm0 0"/>
    <path d="M14.64 8.441l-1.199.52c-.16.039-.242.2-.242.36v1.48c0 .238.16.398.403.398.238 0 .398-.16.398-.398V9.6l.96-.44c.2-.083.278-.321.2-.52-.082-.2-.32-.282-.52-.2zm0 0M12 18.398c.762 0 1.398-.636 1.398-1.398 0-.762-.636-1.398-1.398-1.398-.762 0-1.398.636-1.398 1.398 0 .762.636 1.398 1.398 1.398zm0-2c.32 0 .602.282.602.602s-.282.602-.602.602a.618.618 0 0 1-.602-.602c0-.32.282-.602.602-.602zm0 0"/>
</svg>
